SVG_Azure_Grouped/Storage/Storage Account Shared Access Signature.svg

<?xml version="1.0" encoding="UTF-8" standalone="no"?>
<!-- Generated by Microsoft Visio, SVG Export Storage Account Shared Access Signature.svg Page-1 -->

<svg
   xmlns:dc="http://purl.org/dc/elements/1.1/"
   xmlns:cc="http://creativecommons.org/ns#"
   xmlns:rdf="http://www.w3.org/1999/02/22-rdf-syntax-ns#"
   xmlns:svg="http://www.w3.org/2000/svg"
   xmlns="http://www.w3.org/2000/svg"
   xmlns:sodipodi="http://sodipodi.sourceforge.net/DTD/sodipodi-0.dtd"
   xmlns:inkscape="http://www.inkscape.org/namespaces/inkscape"
   width="0.78786314in"
   height="0.51190615in"
   viewBox="0 0 56.725998 36.857298"
   xml:space="preserve"
   class="st4"
   version="1.1"
   id="svg61"
   sodipodi:docname="Storage Account Shared Access Signature.svg"
   style="font-size:12px;overflow:visible;color-interpolation-filters:sRGB;fill:none;fill-rule:evenodd;stroke-linecap:square;stroke-miterlimit:3"
   inkscape:version="0.92.5 (2060ec1f9f, 2020-04-08)"><metadata
   id="metadata65"><rdf:RDF><cc:Work
       rdf:about=""><dc:format>image/svg+xml</dc:format><dc:type
         rdf:resource="http://purl.org/dc/dcmitype/StillImage" /></cc:Work></rdf:RDF></metadata><sodipodi:namedview
   pagecolor="#ffffff"
   bordercolor="#666666"
   borderopacity="1"
   objecttolerance="10"
   gridtolerance="10"
   guidetolerance="10"
   inkscape:pageopacity="0"
   inkscape:pageshadow="2"
   inkscape:window-width="640"
   inkscape:window-height="480"
   id="namedview63"
   showgrid="false"
   inkscape:zoom="1.6878709"
   inkscape:cx="37.817152"
   inkscape:cy="24.561696"
   inkscape:window-x="0"
   inkscape:window-y="0"
   inkscape:window-maximized="0"
   inkscape:current-layer="svg61" />
	<style
   type="text/css"
   id="style2">
	<![CDATA[
		.st1 {fill:url(#grad0-6);stroke:none;stroke-linecap:butt;stroke-width:34}
		.st2 {fill:url(#grad0-10);stroke:none;stroke-linecap:butt;stroke-width:34}
		.st3 {fill:url(#grad0-14);stroke:none;stroke-linecap:butt;stroke-width:34}
		.st4 {fill:none;fill-rule:evenodd;font-size:12px;overflow:visible;stroke-linecap:square;stroke-miterlimit:3}
	]]>
	</style>

	<defs
   id="Patterns_And_Gradients">
		<linearGradient
   id="grad0-6"
   x1="0"
   y1="95.083233"
   x2="31.569614"
   y2="95.083233"
   gradientTransform="scale(1.2077129,0.82801139)"
   gradientUnits="userSpaceOnUse">
			<stop
   offset="0"
   stop-color="#5e9624"
   stop-opacity="1"
   id="stop4" />
			<stop
   offset="0.01"
   stop-color="#5e9724"
   stop-opacity="1"
   id="stop6" />
			<stop
   offset="0.35"
   stop-color="#6cab29"
   stop-opacity="1"
   id="stop8" />
			<stop
   offset="0.68"
   stop-color="#73b82c"
   stop-opacity="1"
   id="stop10" />
			<stop
   offset="1"
   stop-color="#76bc2d"
   stop-opacity="1"
   id="stop12" />
		</linearGradient>
		<linearGradient
   id="grad0-10"
   x1="-0.013666022"
   y1="95.082579"
   x2="31.555731"
   y2="95.082579"
   gradientTransform="scale(1.2077046,0.82801708)"
   gradientUnits="userSpaceOnUse">
			<stop
   offset="0"
   stop-color="#0078d4"
   stop-opacity="1"
   id="stop15" />
			<stop
   offset="0.82"
   stop-color="#5ea0ef"
   stop-opacity="1"
   id="stop17" />
		</linearGradient>
		<linearGradient
   id="grad0-14"
   x1="0"
   y1="131.46033"
   x2="15.201849"
   y2="131.46033"
   gradientTransform="scale(1.3985141,0.71504462)"
   gradientUnits="userSpaceOnUse">
			<stop
   offset="0"
   stop-color="#005ba1"
   stop-opacity="1"
   id="stop20" />
			<stop
   offset="0.14"
   stop-color="#035da3"
   stop-opacity="1"
   id="stop22" />
			<stop
   offset="0.3"
   stop-color="#0b63aa"
   stop-opacity="1"
   id="stop24" />
			<stop
   offset="0.47"
   stop-color="#196eb6"
   stop-opacity="1"
   id="stop26" />
			<stop
   offset="0.65"
   stop-color="#2d7cc6"
   stop-opacity="1"
   id="stop28" />
			<stop
   offset="0.84"
   stop-color="#468edb"
   stop-opacity="1"
   id="stop30" />
			<stop
   offset="1"
   stop-color="#5ea0ef"
   stop-opacity="1"
   id="stop32" />
		</linearGradient>
	</defs>
	<g
   id="g59"
   transform="translate(-34.000349,-33.997)">
		<title
   id="title36">Page-1</title>
		<g
   id="group20095-1"
   transform="translate(34.0166,-34.0157)">
			<title
   id="title38">Storage Account Shared Access Signature.20095</title>
			<g
   id="group20096-2">
				<title
   id="title40">Icon-web-48</title>
				<g
   id="shape20097-3"
   transform="translate(18.5827)">
					<title
   id="title42">Sheet.20097</title>
					<path
   d="M 26.08,78.73 H 11.81 A 12.5984,12.2835 -180 0 0 0,89.51 h 4.47 a 7.84252,7.64646 0 0 1 7.34,-6.14 h 14.27 a 8.15748,7.95354 0 0 1 7.68,8.32 8.18898,7.98425 0 0 1 -7.68,8.35 H 11.81 A 7.84252,7.64646 0 0 1 4.47,93.9 H 0 a 12.5984,12.2835 -180 0 0 11.81,10.97 H 26.08 A 12.7874,12.4677 -180 0 0 38.11,91.78 12.7874,12.4677 -180 0 0 26.08,78.73 Z"
   class="st1"
   id="path44"
   inkscape:connector-curvature="0"
   style="fill:url(#grad0-6);stroke:none;stroke-width:34;stroke-linecap:butt" />
				</g>
				<g
   id="shape20098-7"
   transform="translate(0,-10.7173)">
					<title
   id="title47">Sheet.20098</title>
					<path
   d="M 26.3,100.23 H 12.03 A 8.15748,7.95354 0 0 1 4.35,91.81 8.18898,7.98425 0 0 1 12.03,83.46 H 26.3 a 7.84252,7.64646 0 0 1 7.34,6.14 h 4.47 A 12.5984,12.2835 -180 0 0 26.3,78.73 H 12.03 A 12.7874,12.4677 -180 0 0 0,91.81 12.7874,12.4677 -180 0 0 12.03,104.87 H 26.3 A 12.5984,12.2835 -180 0 0 38.11,94.09 h -4.47 a 7.84252,7.64646 0 0 1 -7.34,6.14 z"
   class="st2"
   id="path49"
   inkscape:connector-curvature="0"
   style="fill:url(#grad0-10);stroke:none;stroke-width:34;stroke-linecap:butt" />
				</g>
				<g
   id="shape20099-11"
   transform="translate(16.8504,-10.6252)">
					<title
   id="title52">Sheet.20099</title>
					<path
   d="M 9.45,100.14 H 0 v 4.73 H 9.45 A 12.5984,12.2835 -180 0 0 21.26,94 h -4.47 a 7.84252,7.64646 0 0 1 -7.34,6.14 z"
   class="st3"
   id="path54"
   inkscape:connector-curvature="0"
   style="fill:url(#grad0-14);stroke:none;stroke-width:34;stroke-linecap:butt" />
				</g>
			</g>
		</g>
	</g>
</svg>

<?xml version="1.0" encoding="UTF-8" standalone="no"?>
<!DOCTYPE svg PUBLIC "-//W3C//DTD SVG 1.1//EN" "http://www.w3.org/Graphics/SVG/1.1/DTD/svg11.dtd">
<!-- Generated by Microsoft Visio, SVG Export Storage Account Shared Access Signature.svg Page-1 -->
<svg xmlns="http://www.w3.org/2000/svg" xmlns:xlink="http://www.w3.org/1999/xlink" xmlns:ev="http://www.w3.org/2001/xml-events"
		width="1.73231in" height="1.45647in" viewBox="0 0 124.726 104.866" xml:space="preserve" color-interpolation-filters="sRGB"
		class="st4">
	<style type="text/css">
	<![CDATA[
		.st1 {fill:url(#grad0-6);stroke:none;stroke-linecap:butt;stroke-width:34}
		.st2 {fill:url(#grad0-10);stroke:none;stroke-linecap:butt;stroke-width:34}
		.st3 {fill:url(#grad0-14);stroke:none;stroke-linecap:butt;stroke-width:34}
		.st4 {fill:none;fill-rule:evenodd;font-size:12px;overflow:visible;stroke-linecap:square;stroke-miterlimit:3}
	]]>
	</style>

	<defs id="Patterns_And_Gradients">
		<linearGradient id="grad0-6" x1="0" y1="0" x2="1" y2="0" gradientTransform="rotate(-90 0.5 0.5)">
			<stop offset="0" stop-color="#5e9624" stop-opacity="1"/>
			<stop offset="0.01" stop-color="#5e9724" stop-opacity="1"/>
			<stop offset="0.35" stop-color="#6cab29" stop-opacity="1"/>
			<stop offset="0.68" stop-color="#73b82c" stop-opacity="1"/>
			<stop offset="1" stop-color="#76bc2d" stop-opacity="1"/>
		</linearGradient>
		<linearGradient id="grad0-10" x1="0" y1="0" x2="1" y2="0" gradientTransform="rotate(-90 0.5 0.5)">
			<stop offset="0" stop-color="#0078d4" stop-opacity="1"/>
			<stop offset="0.82" stop-color="#5ea0ef" stop-opacity="1"/>
		</linearGradient>
		<linearGradient id="grad0-14" x1="0" y1="0" x2="1" y2="0" gradientTransform="rotate(110.18752416876 0.5 0.5)">
			<stop offset="0" stop-color="#005ba1" stop-opacity="1"/>
			<stop offset="0.14" stop-color="#035da3" stop-opacity="1"/>
			<stop offset="0.3" stop-color="#0b63aa" stop-opacity="1"/>
			<stop offset="0.47" stop-color="#196eb6" stop-opacity="1"/>
			<stop offset="0.65" stop-color="#2d7cc6" stop-opacity="1"/>
			<stop offset="0.84" stop-color="#468edb" stop-opacity="1"/>
			<stop offset="1" stop-color="#5ea0ef" stop-opacity="1"/>
		</linearGradient>
	</defs>
	<g>
		<title>Page-1</title>
		<g id="group19640-1" transform="translate(34.0166,-34.0157)">
			<title>Storage Account Shared Access Signature.19640</title>
			<g id="group19641-2">
				<title>Icon-web-48</title>
				<g id="shape19642-3" transform="translate(18.5827,1.98952E-13)">
					<title>Sheet.19642</title>
					<path d="M26.08 78.73 L11.81 78.73 A12.5984 12.2835 -180 0 0 0 89.51 L4.47 89.51 A7.84252 7.64646 0 0 1 11.81
								 83.37 L26.08 83.37 A8.15748 7.95354 0 0 1 33.76 91.69 A8.18898 7.98425 0 0 1 26.08 100.04 L11.81
								 100.04 A7.84252 7.64646 0 0 1 4.47 93.9 L0 93.9 A12.5984 12.2835 -180 0 0 11.81 104.87 L26.08 104.87
								 A12.7874 12.4677 -180 0 0 38.11 91.78 A12.7874 12.4677 -180 0 0 26.08 78.73 Z" class="st1"/>
				</g>
				<g id="shape19643-7" transform="translate(0,-10.7173)">
					<title>Sheet.19643</title>
					<path d="M26.3 100.23 L12.03 100.23 A8.15748 7.95354 0 0 1 4.35 91.81 A8.18898 7.98425 0 0 1 12.03 83.46 L26.3
								 83.46 A7.84252 7.64646 0 0 1 33.64 89.6 L38.11 89.6 A12.5984 12.2835 -180 0 0 26.3 78.73 L12.03
								 78.73 A12.7874 12.4677 -180 0 0 0 91.81 A12.7874 12.4677 -180 0 0 12.03 104.87 L26.3 104.87 A12.5984
								 12.2835 -180 0 0 38.11 94.09 L33.64 94.09 A7.84252 7.64646 0 0 1 26.3 100.23 Z" class="st2"/>
				</g>
				<g id="shape19644-11" transform="translate(16.8504,-10.6252)">
					<title>Sheet.19644</title>
					<path d="M9.45 100.14 L0 100.14 L0 104.87 L9.45 104.87 A12.5984 12.2835 -180 0 0 21.26 94 L16.79 94 A7.84252
								 7.64646 0 0 1 9.45 100.14 Z" class="st3"/>
				</g>
			</g>
		</g>
	</g>
</svg>
